src/assets/img/globalping/link-icon.svg

<svg width="21" height="20" viewBox="0 0 21 20" fill="none" xmlns="http://www.w3.org/2000/svg">
<path d="M7.75 2.75H5.25C4.14543 2.75 3.25 3.64543 3.25 4.75V15.25C3.25 16.3546 4.14543 17.25 5.25 17.25H15.75C16.8546 17.25 17.75 16.3546 17.75 15.25V12.75" stroke="#17D4A7" stroke-width="1.5" stroke-linecap="round" stroke-linejoin="round"/>
<path d="M17.75 7.25V2.75H13.25" stroke="#17D4A7" stroke-width="1.5" stroke-linecap="round" stroke-linejoin="round"/>
<path d="M17.5 3L10.25 10.25" stroke="#17D4A7" stroke-width="1.5" stroke-linecap="round" stroke-linejoin="round"/>
</svg>

<svg xmlns="http://www.w3.org/2000/svg" width="21" height="20" fill="none">
  <path stroke="#17D4A7" stroke-linecap="round" stroke-linejoin="round" stroke-width="1.5" d="M7.75 2.75h-2.5a2 2 0 0 0-2 2v10.5a2 2 0 0 0 2 2h10.5a2 2 0 0 0 2-2v-2.5m0-5.5v-4.5h-4.5M17.5 3l-7.25 7.25"/>
</svg>
